symbols/web/dry_cleaning/materialsymbolsoutlined/dry_cleaning_wght600grad200_40px.svg

<svg xmlns="http://www.w3.org/2000/svg" height="40" width="40"><path d="M11.292 37.375V27.208H8.458q-1.916 0-3.27-1.312-1.355-1.313-1.355-3.188 0-1.458.75-2.687.75-1.229 2.167-1.813l11.292-4.666V12.5q-1.5-.458-2.459-1.792-.958-1.333-.958-2.958 0-2.25 1.583-3.812 1.584-1.563 3.834-1.563 2.208 0 3.791 1.563Q25.417 5.5 25.417 7.75H21.75q0-.708-.5-1.167-.5-.458-1.208-.458-.709 0-1.209.458-.5.459-.5 1.125 0 .709.521 1.23.521.52 1.229.52.792 0 1.334.563.541.562.541 1.312v2.125l11.292 4.75q1.25.5 2.083 1.709.834 1.208.834 2.791 0 1.875-1.355 3.188-1.354 1.312-3.27 1.312H28.75v10.167Zm3.75-11.833H25Zm-6.584-2.084h2.834v-1.625H28.75v1.625h2.792q.375 0 .646-.208.27-.208.27-.583 0-.292-.166-.542-.167-.25-.5-.375l-11.709-5.042L8.208 21.75q-.375.167-.52.396-.146.229-.146.479 0 .375.27.604.271.229.646.229Zm6.584 10.167H25v-8.083h-9.958Z"/></svg>

<svg xmlns="http://www.w3.org/2000/svg" height="40" width="40"><path d="M11.292 37.375V27.208H8.458Q6.542 27.208 5.188 25.896Q3.833 24.583 3.833 22.708Q3.833 21.25 4.583 20.021Q5.333 18.792 6.75 18.208L18.042 13.542V12.5Q16.542 12.042 15.583 10.708Q14.625 9.375 14.625 7.75Q14.625 5.5 16.208 3.938Q17.792 2.375 20.042 2.375Q22.25 2.375 23.833 3.938Q25.417 5.5 25.417 7.75H21.75Q21.75 7.042 21.25 6.583Q20.75 6.125 20.042 6.125Q19.333 6.125 18.833 6.583Q18.333 7.042 18.333 7.708Q18.333 8.417 18.854 8.938Q19.375 9.458 20.083 9.458Q20.875 9.458 21.417 10.021Q21.958 10.583 21.958 11.333V13.458L33.25 18.208Q34.5 18.708 35.333 19.917Q36.167 21.125 36.167 22.708Q36.167 24.583 34.812 25.896Q33.458 27.208 31.542 27.208H28.75V37.375ZM15.042 25.542H25ZM8.458 23.458H11.292V21.833H28.75V23.458H31.542Q31.917 23.458 32.188 23.25Q32.458 23.042 32.458 22.667Q32.458 22.375 32.292 22.125Q32.125 21.875 31.792 21.75L20.083 16.708L8.208 21.75Q7.833 21.917 7.688 22.146Q7.542 22.375 7.542 22.625Q7.542 23 7.812 23.229Q8.083 23.458 8.458 23.458ZM15.042 33.625H25V25.542H15.042Z"/></svg>
